X:4048
L:1/16
M:4/4
K:C
[M:2/4][K:G] .a2b2c2 (3(DEF) | GABc dBgf | efge dBGB | cedc BAGB | AGFE D2(3(DEF) | GABc dBgf | 
 efge dBGB | cedc B>A (3(GAB) | A2G2G2 :: (3(def) | gdBd edBd | gdBd edBd | gfed cBAG | 
 F>A (3(GFE) D2(3(DEF) | GABc dBgf | efge dBGB | cedc B>A (3(GAB) | A2G2G2 :|

